X:220
T:Woods of Old Limerick, The
R:double jig
S:Mike Rafferty concert
Z:Lesl Harker <lmh:RCONS.COM> irtrad-l 2001-11-17
N:played following Garrett Barry's at the Blarney Star concert spring 2001
Z:lesl
M:6/8
K:Dmix
AG|FzD EFG|Add cAG|FzD EFG|Ecc EFG|
FzD EFG|AdB cAG|FzD EAG|ED^c D2z||
EFD EFG|Azd cAG|EFD EFG|Ecc EFG|
FzD EFG|AdB cAG|FzD EAG|ED^c dze||
|:fdd ded|^cAA Ade|ffd def|ge^c d2z|
fed ed^c|dzd =cAG|EFD EAG|1 ED^c dze:|2 ED^c D2z||
